packages/kaspersky-hexa-ui-icons/src/iconsSVGs/24/AppsGrid.svg

<svg width="24" height="24" viewBox="0 0 24 24" fill="none" xmlns="http://www.w3.org/2000/svg">
<path fill-rule="evenodd" clip-rule="evenodd" d="M3 5.5C3 4.11929 4.11929 3 5.5 3H8.5C9.88071 3 11 4.11929 11 5.5V8.5C11 9.88071 9.88071 11 8.5 11H5.5C4.11929 11 3 9.88071 3 8.5V5.5ZM5.5 5C5.22386 5 5 5.22386 5 5.5V8.5C5 8.77614 5.22386 9 5.5 9H8.5C8.77614 9 9 8.77614 9 8.5V5.5C9 5.22386 8.77614 5 8.5 5H5.5Z" fill="black"/>
<path fill-rule="evenodd" clip-rule="evenodd" d="M15.5 3C14.1193 3 13 4.11929 13 5.5V8.5C13 9.88071 14.1193 11 15.5 11H18.5C19.8807 11 21 9.88071 21 8.5V5.5C21 4.11929 19.8807 3 18.5 3H15.5ZM15 5.5C15 5.22386 15.2239 5 15.5 5H18.5C18.7761 5 19 5.22386 19 5.5V8.5C19 8.77614 18.7761 9 18.5 9H15.5C15.2239 9 15 8.77614 15 8.5V5.5Z" fill="black"/>
<path fill-rule="evenodd" clip-rule="evenodd" d="M15.5 13C14.1193 13 13 14.1193 13 15.5V18.5C13 19.8807 14.1193 21 15.5 21H18.5C19.8807 21 21 19.8807 21 18.5V15.5C21 14.1193 19.8807 13 18.5 13H15.5ZM15 15.5C15 15.2239 15.2239 15 15.5 15H18.5C18.7761 15 19 15.2239 19 15.5V18.5C19 18.7761 18.7761 19 18.5 19H15.5C15.2239 19 15 18.7761 15 18.5V15.5Z" fill="black"/>
<path fill-rule="evenodd" clip-rule="evenodd" d="M5.5 13C4.11929 13 3 14.1193 3 15.5V18.5C3 19.8807 4.11929 21 5.5 21H8.5C9.88071 21 11 19.8807 11 18.5V15.5C11 14.1193 9.88071 13 8.5 13H5.5ZM5 15.5C5 15.2239 5.22386 15 5.5 15H8.5C8.77614 15 9 15.2239 9 15.5V18.5C9 18.7761 8.77614 19 8.5 19H5.5C5.22386 19 5 18.7761 5 18.5V15.5Z" fill="black"/>
</svg>

<svg xmlns="http://www.w3.org/2000/svg" width="24" height="24" fill="none" viewBox="0 0 24 24"><path fill="#000" fill-rule="evenodd" d="M3 5.5C3 4.1193 4.1193 3 5.5 3h3C9.8807 3 11 4.1193 11 5.5v3C11 9.8807 9.8807 11 8.5 11h-3C4.1193 11 3 9.8807 3 8.5zM15.5 3C14.1193 3 13 4.1193 13 5.5v3c0 1.3807 1.1193 2.5 2.5 2.5h3c1.3807 0 2.5-1.1193 2.5-2.5v-3C21 4.1193 19.8807 3 18.5 3zm-10 2a.5.5 0 0 0-.5.5v3a.5.5 0 0 0 .5.5h3a.5.5 0 0 0 .5-.5v-3a.5.5 0 0 0-.5-.5zm9.5.5a.5.5 0 0 1 .5-.5h3a.5.5 0 0 1 .5.5v3a.5.5 0 0 1-.5.5h-3a.5.5 0 0 1-.5-.5zM5.5 13C4.1193 13 3 14.1193 3 15.5v3C3 19.8807 4.1193 21 5.5 21h3c1.3807 0 2.5-1.1193 2.5-2.5v-3c0-1.3807-1.1193-2.5-2.5-2.5zm10 0c-1.3807 0-2.5 1.1193-2.5 2.5v3c0 1.3807 1.1193 2.5 2.5 2.5h3c1.3807 0 2.5-1.1193 2.5-2.5v-3c0-1.3807-1.1193-2.5-2.5-2.5zM5 15.5a.5.5 0 0 1 .5-.5h3a.5.5 0 0 1 .5.5v3a.5.5 0 0 1-.5.5h-3a.5.5 0 0 1-.5-.5zm10 0a.5.5 0 0 1 .5-.5h3a.5.5 0 0 1 .5.5v3a.5.5 0 0 1-.5.5h-3a.5.5 0 0 1-.5-.5z"/></svg>
